src/lib/packages/icons/src/assets/filled/home-dash-lock.svg

<svg width="24" height="24" viewBox="0 0 24 24" fill="none" xmlns="http://www.w3.org/2000/svg">
<path fill-rule="evenodd" clip-rule="evenodd" d="M13 11.25V12.625H11V11.25C11 10.699 11.448 10.25 12 10.25C12.552 10.25 13 10.699 13 11.25ZM20.9681 10.966L19.513 18.949C19.296 20.137 18.261 21.001 17.054 21.001H6.94804C5.74004 21.001 4.70506 20.137 4.48906 18.949L3.0341 10.9671C2.9041 10.2531 3.1711 9.524 3.7321 9.064L10.413 3.57108C11.336 2.81208 12.667 2.81208 13.59 3.57108L20.272 9.064C20.831 9.523 21.0981 10.252 20.9681 10.966ZM15.5 14.125C15.5 13.315 15.155 12.8511 14.5 12.6961V11.25C14.5 9.87204 13.379 8.75004 12 8.75004C10.621 8.75004 9.50005 9.87204 9.50005 11.25V12.6961C8.84505 12.8501 8.50005 13.315 8.50005 14.125V16.375C8.50005 17.375 9.00005 17.875 10 17.875H14C15 17.875 15.5 17.375 15.5 16.375V14.125Z" fill="currentColor"/>
</svg>

<svg xmlns="http://www.w3.org/2000/svg" width="24" height="24" fill="none"><path fill="currentColor" fill-rule="evenodd" d="M13 11.25v1.375h-2V11.25a1.001 1.001 0 0 1 2 0Zm7.968-.284-1.455 7.983a2.5 2.5 0 0 1-2.459 2.052H6.948a2.5 2.5 0 0 1-2.459-2.052l-1.455-7.982a1.998 1.998 0 0 1 .698-1.903l6.681-5.493a2.501 2.501 0 0 1 3.177 0l6.682 5.493c.559.459.826 1.188.696 1.902ZM15.5 14.125c0-.81-.345-1.274-1-1.429V11.25c0-1.378-1.121-2.5-2.5-2.5a2.503 2.503 0 0 0-2.5 2.5v1.446c-.655.154-1 .619-1 1.429v2.25c0 1 .5 1.5 1.5 1.5h4c1 0 1.5-.5 1.5-1.5v-2.25Z" clip-rule="evenodd"/></svg>
